X: 27235
T: Miss Sarah Drummond Of Perth
R: strathspey
M: 4/4
K: Edorian
zF|(3EEE B>E G>AB>G|A<dF>d A<dF>D|(3EEE B>E G>AB>c|d<BA>F B<E (3FED|
(3EEE B>E G>A B2|A<dF>d A<dF>D|(3EEE B>E (3GGG B>c|(3dcB (3AGF E2||
(3Bc^d|(3efe B>e G>eB<e|(3ded A>d F>dA<d|(3efe B>e G>e (3ABc|(3dcB A<F E2 e^d|
e2 b>e B>eb<e|d2 a>d A>da<d|(3bbb (3Bcd (3aaa (3ABc|(3dcB A<d e2||

